build/images/scratching.svg

<svg width="14" height="16" viewBox="0 0 14 16" fill="none" xmlns="http://www.w3.org/2000/svg">
<path d="M13.2277 13.6119H8.89656V2.38817H10.591V6.82783C10.0818 6.94627 9.69958 7.42672 9.69958 8.00003C9.69958 8.66196 10.2089 9.20049 10.8351 9.20049C11.4611 9.20049 11.9705 8.66199 11.9705 8.00003C11.9705 7.42672 11.5883 6.94627 11.0792 6.82783V2.38817H12.5675C12.9933 2.38817 13.3398 2.02189 13.3398 1.57169V0.816485C13.3398 0.366281 12.9933 0 12.5674 0H1.43256C1.00673 0 0.660269 0.366281 0.660269 0.816485V1.57165C0.660269 2.02189 1.00673 2.38814 1.43256 2.38814H5.10344V13.6119H0.772294C0.346457 13.6119 0 13.9781 0 14.4283V15.1835C0 15.6338 0.346457 16 0.772294 16H13.2277C13.6536 16 14 15.6337 14 15.1835V14.4283C14 13.9781 13.6536 13.6119 13.2277 13.6119ZM11.4823 8.00003C11.4823 8.37736 11.1919 8.68436 10.835 8.68436C10.4781 8.68436 10.1877 8.37736 10.1877 8.00003C10.1877 7.62271 10.4781 7.31571 10.835 7.31571C11.1919 7.31571 11.4823 7.62271 11.4823 8.00003ZM1.43256 1.57169V0.816485C1.43256 0.650876 1.67148 0.59375 1.82812 0.59375H12.4034C12.56 0.59375 12.6875 0.650876 12.6875 0.816485V1.57165C12.6875 1.73726 12.56 1.78125 12.4034 1.78125H1.82812C1.67148 1.78128 1.43256 1.7373 1.43256 1.57169ZM5.73438 11.78H6.00781C6.00781 11.78 6.2519 11.6645 6.2519 11.522C6.2519 11.3794 6.14261 11.2639 6.00781 11.2639H5.73438V9.43209H8.30999C8.44483 9.43209 9.26954 9.28545 8.62165 9.1429C9.26954 9.00034 8.44483 8.91596 8.30999 8.91596H5.73438V7.08407H7.99223C8.12703 7.08407 7.74813 6.96856 7.74813 6.82601C7.74813 6.68345 8.12703 6.56794 7.99223 6.56794L5.73438 6.56794V2.38817L8.30999 2.38814V4.21996L5.52138 4.21996C5.38657 4.21996 5.52138 4.19291 5.52138 4.33547C5.52138 4.73609 5.37864 4.73612 5.37864 4.73612L8.30999 4.73609V6.56791L7.99223 6.56794C7.85739 6.56794 7.74813 6.68345 7.74813 6.82601C7.74813 6.96856 7.85739 7.08407 7.99223 7.08407L8.30999 7.08404V9.17396V11.2639L6.00781 11.2639C5.873 11.2639 6.2519 11.3794 6.2519 11.522C6.2519 11.6645 5.873 11.78 6.00781 11.78L8.30999 11.78V13.6118L5.73438 13.6119V11.78ZM13.4029 15.1836C13.4029 15.3492 13.1566 15.3906 13 15.3906H0.909098C0.752452 15.3906 0.625 15.3492 0.625 15.1836V14.4284C0.625 14.2628 0.752452 14.2188 0.909098 14.2188H13.1187C13.2754 14.2188 13.4028 14.2628 13.4028 14.4284L13.4029 15.1836Z" fill="#777777"/>
</svg>

<svg width="14" height="16" fill="none" xmlns="http://www.w3.org/2000/svg"><path d="M13.228 13.612H8.897V2.388h1.694v4.44c-.51.118-.891.599-.891 1.172 0 .662.509 1.2 1.135 1.2S11.97 8.662 11.97 8c0-.573-.382-1.054-.89-1.172v-4.44h1.488c.425 0 .772-.366.772-.816V.816c0-.45-.347-.816-.773-.816H1.433C1.007 0 .66.366.66.816v.756c0 .45.347.816.773.816h3.67v11.224H.773c-.427 0-.773.366-.773.816v.755c0 .45.346.817.772.817h12.456c.426 0 .772-.366.772-.816v-.756c0-.45-.346-.816-.772-.816zM11.482 8c0 .377-.29.684-.647.684-.357 0-.647-.307-.647-.684 0-.377.29-.684.647-.684.357 0 .647.307.647.684zM1.432 1.572V.816c0-.165.24-.222.396-.222h10.575c.157 0 .284.057.284.222v.756c0 .165-.127.21-.284.21H1.828c-.157 0-.395-.045-.395-.21zM5.735 11.78h.274s.244-.115.244-.258a.251.251 0 00-.244-.258h-.274V9.432H8.31c.135 0 .96-.147.312-.29.648-.142-.177-.226-.312-.226H5.734V7.084h2.258c.135 0-.244-.115-.244-.258 0-.143.379-.258.244-.258H5.734v-4.18H8.31V4.22H5.521c-.134 0 0-.027 0 .115 0 .401-.142.401-.142.401H8.31v1.832h-.318a.251.251 0 00-.244.258c0 .143.11.258.244.258h.318v4.18H6.008c-.135 0 .244.115.244.258 0 .143-.379.258-.244.258H8.31v1.832H5.734V11.78zm7.669 3.404c0 .165-.246.207-.403.207H.91c-.158 0-.285-.042-.285-.207v-.756c0-.165.127-.21.284-.21h12.21c.156 0 .284.045.284.21v.756z" fill="#777"/></svg>
